src/public/img/landing/new/external-websites/rotten-tomatoes.svg

<svg width="99" height="28" viewBox="0 0 99 28" fill="none" xmlns="http://www.w3.org/2000/svg">
<path d="M15.6639 14.4947L14.5269 14.4799V0.090744H17.957C21.6569 0.090744 21.9692 0.108511 22.8725 0.37117C24.3381 0.797282 25.4569 1.72086 26.0734 3.01355C26.3732 3.64205 26.4906 4.14477 26.5216 4.93034C26.5911 6.70557 25.8395 8.24912 24.5092 9.06382C24.1107 9.30786 24.0923 9.32719 24.1572 9.43052C24.3322 9.70924 27.0981 14.483 27.0981 14.5065C27.0981 14.521 26.0425 14.5329 24.7523 14.5329H22.4068L21.0453 12.2351C20.2965 10.9712 19.655 9.89771 19.6199 9.84953C19.5722 9.78415 19.4507 9.75458 19.1436 9.73341L18.7315 9.70512L18.7573 12.1189L18.783 14.5328L17.7919 14.521C17.2469 14.5146 16.2892 14.5025 15.6639 14.4944V14.4947ZM20.7274 6.46721C21.6871 6.26482 22.1779 5.80388 22.2317 5.0547C22.2693 4.53066 22.145 4.1732 21.8127 3.84914C21.3725 3.41948 20.758 3.27066 19.4122 3.26754L18.702 3.26611L18.7352 3.73487C18.7535 3.99269 18.7684 4.74514 18.7684 5.40719V6.61062L19.5732 6.5758C20.016 6.55661 20.5353 6.50772 20.7274 6.46721Z" fill="black"/>
<path d="M31.6728 14.7364C30.407 14.5933 29.2906 14.0286 28.3886 13.0754C27.3642 11.9928 26.8131 10.6603 26.7546 9.1246C26.7233 8.30194 26.7853 7.75729 26.9813 7.13475C27.7196 4.78843 29.8139 3.39057 32.7555 3.2807C33.2577 3.26194 33.7 3.27459 34.0075 3.31623C36.5319 3.65976 38.3884 5.42263 38.9412 8.0009C39.0581 8.54626 39.057 9.79589 38.9393 10.3134C38.4519 12.4559 36.9486 13.9369 34.687 14.5029C33.7913 14.727 32.4847 14.8282 31.6725 14.7363L31.6728 14.7364ZM33.0612 13.0233C33.5572 12.8756 33.7614 12.6047 33.756 12.1013C33.7542 11.9323 33.7158 11.6962 33.6705 11.5764C33.433 10.9463 33.4349 10.9544 33.4925 10.8278C33.5234 10.7598 33.6043 10.6788 33.6722 10.6478C33.836 10.5731 33.9339 10.6374 34.1553 10.9659C34.4695 11.4321 35.0357 11.9623 35.4033 12.1348C35.698 12.273 35.7808 12.2896 36.0902 12.272C36.3974 12.2546 36.4778 12.2273 36.7247 12.0569C37.0489 11.8332 37.1361 11.651 37.1331 11.2047C37.13 10.7576 36.8986 10.3884 36.4383 10.0968C36.1568 9.91826 35.5576 9.73463 35.1215 9.69312C34.5656 9.64011 34.3693 9.54929 34.2984 9.31164C34.2293 9.08068 34.3019 8.89122 34.5222 8.72791C34.6343 8.64462 34.7718 8.61662 35.1865 8.59231C35.5203 8.57284 35.7665 8.53134 35.8678 8.47761C36.5919 8.09357 36.639 6.84764 35.9476 6.3661C35.7542 6.23136 35.6827 6.21203 35.3854 6.21373C34.7009 6.21757 34.2378 6.66671 34.0194 7.53926C34.0017 7.60975 33.9332 7.72588 33.8669 7.79737C33.7271 7.9486 33.4642 7.97162 33.2347 7.8528C33.0035 7.73284 32.9737 7.4699 33.1069 6.71788C33.2724 5.78222 33.1825 5.39036 32.7434 5.13254C32.4639 4.96837 31.9669 4.91081 31.6717 5.00845C31.4113 5.09459 31.0722 5.44352 30.994 5.70561C30.8366 6.23406 30.9614 6.56892 31.5454 7.18322C31.7908 7.44133 32.0064 7.69987 32.0248 7.75771C32.1085 8.02222 31.7902 8.32581 31.4968 8.26129C31.3294 8.22433 31.1702 8.06188 30.9112 7.66334C30.4951 7.02275 29.9139 6.81822 29.3414 7.11101C28.8488 7.36287 28.7213 7.93182 29.0483 8.4182C29.2381 8.70047 29.5788 8.88866 30.1035 9.00094C30.8634 9.16368 31.0774 9.32898 30.8701 9.59306C30.7626 9.73008 30.7524 9.73235 30.3985 9.69369C29.8645 9.63556 29.6576 9.65702 29.3611 9.80129C29.0519 9.95166 28.9172 10.118 28.8331 10.4528C28.6643 11.1244 29.1366 11.7194 29.8357 11.7164C30.2039 11.7147 30.4835 11.5623 30.9508 11.1089C31.467 10.6079 31.5592 10.555 31.7258 10.6645C31.9082 10.7843 31.931 10.9618 31.8061 11.2891C31.5219 12.0333 31.7841 12.8071 32.3947 13.0251C32.6505 13.1165 32.7492 13.1162 33.0612 13.0234V13.0233ZM44.7276 14.5317C42.8092 14.4088 41.7699 13.8737 41.1988 12.7154C40.8027 11.9119 40.7089 11.2361 40.6604 8.83593L40.6277 7.20994H40.3596C40.2121 7.20994 39.9848 7.1953 39.8544 7.17725L39.6173 7.14484V3.62508H40.6905V0.552191H44.8808V3.62508H46.6183V7.26139H44.8808L44.881 8.88738C44.8811 10.4096 44.8875 10.5239 44.9809 10.6774C45.1554 10.9641 45.2918 11 46.2069 11H47.027V14.5847L46.1711 14.5771C45.7003 14.5728 45.0507 14.5525 44.7275 14.5319L44.7276 14.5317ZM52.5066 14.4791C50.2901 14.2645 49.2759 13.3685 48.9401 11.3282C48.8805 10.9671 48.8472 10.3101 48.8238 9.04557C48.8058 8.06912 48.7719 7.25087 48.7485 7.22756C48.7251 7.20411 48.4894 7.17696 48.2246 7.16715L47.7434 7.14953V3.57434H48.8798L48.8421 2.0379L48.8044 0.50145H53.0069V3.62551H54.7443V7.21036H53.0016L53.0169 8.86194C53.031 10.3592 53.041 10.5263 53.1254 10.6508C53.325 10.9454 53.4216 10.9729 54.3227 10.9916L55.1531 11.0087V14.5336L54.0416 14.5267C53.4304 14.5229 52.7397 14.5012 52.5066 14.4787V14.4791ZM60.9905 12.2784C59.2331 12.0565 57.6004 11.1734 56.7987 10.0111C56.0406 8.91211 55.655 7.67485 55.6541 6.33924C55.653 4.40994 56.4923 2.85473 58.1202 1.76912C59.1399 1.08917 59.9277 0.866587 61.4644 0.823947C62.2475 0.802343 62.4563 0.813429 62.8698 0.899135C63.6828 1.06756 64.3908 1.40228 64.9814 1.89747C65.5076 2.33865 66.0958 3.20807 66.3924 3.9834C66.748 4.9128 66.9492 6.40419 66.8227 7.17142L66.791 7.36344H63.0928C61.0588 7.36344 59.3946 7.38291 59.3946 7.40679C59.3946 7.43053 59.4829 7.58687 59.5907 7.75416C60.0623 8.48529 60.8137 8.84971 61.8454 8.84787C62.618 8.84644 63.3476 8.64277 63.8693 8.28317L64.0792 8.13834L65.2502 9.24058C65.6639 9.62961 66.0772 10.0191 66.49 10.4092C66.5967 10.5119 66.4981 10.644 66.0426 11.0093C65.3408 11.5721 64.4794 11.9594 63.442 12.179C62.8691 12.3003 61.5787 12.3524 60.9907 12.2782L60.9905 12.2784ZM63.1549 5.15087C63.0702 4.62043 62.7586 4.2236 62.2335 3.97729C61.6587 3.70766 60.9086 3.73111 60.3098 4.03727C59.9036 4.24478 59.5255 4.73016 59.4252 5.17219L59.3937 5.31091L59.8158 5.32825C60.048 5.33777 60.902 5.35014 61.7135 5.35597L63.1892 5.36634L63.1549 5.15087ZM67.7754 9.05367V3.52261H71.9146V4.29083C71.9146 4.71339 71.9319 5.05891 71.9529 5.05863C71.9741 5.05863 72.1062 4.9182 72.2468 4.74707C72.7193 4.17144 73.4523 3.65735 74.141 3.41842C76.2944 2.67124 78.5935 4.35195 78.9133 6.90705C78.946 7.16943 78.9668 8.73004 78.9668 10.9345V14.5336H74.7765V7.99834L74.6409 7.72545C74.4177 7.27674 73.9721 7.01507 73.4222 7.0101C72.8043 7.00456 72.3431 7.38248 72.1025 8.09172C71.9967 8.40384 71.9929 8.50575 71.977 11.4992L71.9607 14.5849H67.7755V9.05381L67.7754 9.05367ZM69.2617 27.6434C68.0153 27.4686 66.8185 26.9221 66.0224 26.1642C65.0379 25.2269 64.4541 23.7679 64.4541 22.2444C64.4541 20.6549 65.1736 19.2506 66.5331 18.1866C66.7696 18.0016 66.9545 17.8418 66.9441 17.8316C66.9339 17.8212 66.5415 17.839 66.0723 17.8711C65.6032 17.9032 65.2058 17.916 65.1895 17.8995C65.1392 17.8491 65.4621 17.4214 65.683 17.246C66.1355 16.887 66.704 16.7599 67.2455 16.8964C67.6517 16.999 67.6369 16.8981 67.1703 16.3861L66.754 15.9287L67.0302 15.6921C67.1823 15.562 67.3177 15.4556 67.3312 15.4556C67.3447 15.4556 67.5219 15.7209 67.7252 16.0453C67.9284 16.3696 68.1135 16.6465 68.1365 16.6607C68.1591 16.6749 68.2614 16.5604 68.3637 16.4062C68.8039 15.7414 69.4279 15.4424 70.0267 15.6089C70.4278 15.7207 70.4277 15.744 70.0279 16.2448C69.8293 16.4939 69.6666 16.7015 69.6666 16.7065C69.6666 16.7115 70.0774 16.7058 70.5796 16.6938C72.3432 16.6522 73.5189 16.9225 74.5055 17.5965C74.8434 17.8273 75.3411 18.3335 75.5904 18.6999C75.7833 18.983 76.31 20.0706 76.4333 20.4396C76.6988 21.2359 76.7388 22.644 76.5192 23.4704C76.3642 24.0539 75.966 24.8329 75.5724 25.3227C74.6836 26.4289 73.2398 27.2466 71.6084 27.5675C71.1023 27.667 69.7437 27.7111 69.2615 27.6434H69.2617ZM82.698 27.7941C81.5869 27.6529 80.5876 27.2866 79.659 26.6802C78.5968 25.9864 77.7972 24.6932 77.4528 23.1119C77.3415 22.601 77.3052 21.5522 77.3808 21.0341C77.6447 19.2249 78.7465 17.7708 80.5406 16.8641C80.8806 16.6923 81.1707 16.5935 81.6335 16.4921C82.2062 16.3666 82.3613 16.354 83.3368 16.3539C84.2958 16.3539 84.4562 16.3662 84.8444 16.4713C86.66 16.9623 87.9099 18.3966 88.3778 20.5259C88.4759 20.9724 88.4961 21.2155 88.4971 21.9598L88.4982 22.856L84.7816 22.8815L81.0649 22.9071L81.2214 23.1816C81.6663 23.9623 82.4589 24.3668 83.5437 24.3668C84.3077 24.3668 85.1303 24.129 85.5946 23.7741L85.7617 23.6465L87.0174 24.8342L88.2731 26.0218L88.079 26.2222C86.9527 27.3854 84.688 28.0469 82.6979 27.7942L82.698 27.7941ZM84.8742 20.7177C84.7647 20.0221 84.2246 19.5278 83.4239 19.3902C82.3884 19.2123 81.3602 19.8195 81.1374 20.7408C81.1041 20.8786 81.1048 20.8791 81.4281 20.8974C81.6066 20.9073 82.4626 20.9201 83.3306 20.9255L84.9085 20.9355L84.8742 20.7177ZM92.7902 27.8481C92.2022 27.7813 91.4395 27.6099 90.931 27.4301C90.2188 27.1782 89.1364 26.5963 89.1364 26.4654C89.1364 26.4228 90.6304 23.7902 90.7027 23.7052C90.7128 23.6933 91.0371 23.8462 91.4234 24.0449C92.4834 24.5903 92.9686 24.7357 93.7101 24.73C94.3067 24.7253 94.6895 24.6229 94.8727 24.4191C95.1282 24.1349 95.0112 23.7221 94.642 23.6049C94.5511 23.576 94.1201 23.5544 93.6847 23.557C93.1309 23.5601 92.783 23.5371 92.5288 23.4798C91.0799 23.1543 89.9482 22.2172 89.4867 20.9606C89.3948 20.7109 89.3732 20.5398 89.3701 20.0393L89.3664 19.4248L89.5863 18.964C90.2225 17.6301 91.4586 16.6785 92.9588 16.3682C93.3704 16.2829 93.5892 16.2696 94.2466 16.2888C95.0995 16.3138 95.6088 16.4053 96.3952 16.6749C97.2035 16.9521 98.304 17.4707 98.2985 17.5721C98.2973 17.5952 97.9777 18.1545 97.5882 18.8149C97.0446 19.7367 96.8621 20.0075 96.8025 19.9809C96.516 19.853 95.2226 19.4408 94.8854 19.3698C94.6604 19.3224 94.2456 19.2808 93.9634 19.2774C93.4186 19.2707 93.2627 19.3214 93.0595 19.572C92.9205 19.7434 92.9414 20.0723 93.1006 20.2224C93.2272 20.3415 93.2656 20.3472 94.0334 20.3607C95.9346 20.3941 97.1223 20.807 97.9633 21.727C98.4654 22.2759 98.7269 22.9027 98.7778 23.6785C98.8503 24.7804 98.4587 25.7388 97.6035 26.553C97.0167 27.1115 96.7818 27.2547 96.0141 27.5213C95.1788 27.8114 93.7467 27.9565 92.7901 27.8479L92.7902 27.8481ZM61.2969 27.4927C60.8551 27.4714 60.0909 27.3674 59.7606 27.2834C58.2231 26.8925 57.4832 26.0099 57.1945 24.2226C57.1551 23.9784 57.1268 23.3413 57.0973 22.0272L57.0558 20.1759L56.8185 20.1535C56.6465 20.1393 56.4739 20.1317 56.3013 20.1307L56.0212 20.1304V16.5453H57.1385L57.1212 15.2508C57.1115 14.5387 57.0971 13.8461 57.0885 13.7118L57.0734 13.4673H61.2969V16.5817H63.0314V20.2029H61.2969L61.2972 21.751C61.2972 22.7195 61.3115 23.3503 61.3353 23.436C61.3824 23.6061 61.5653 23.8193 61.7198 23.884C61.8063 23.9201 62.0488 23.9329 62.6509 23.9329H63.4649V27.518L62.4984 27.5111C61.9667 27.5072 61.4262 27.499 61.2969 27.4927ZM47.1131 27.8452C46.2525 27.7174 45.3856 27.2397 44.5548 26.4353C44.0421 25.939 43.7503 25.5464 43.4627 24.9659C43.033 24.0985 42.8703 23.4259 42.8405 22.3928C42.8122 21.4018 42.9248 20.6384 43.2308 19.7491C43.5475 18.8285 43.8612 18.2977 44.4172 17.7415C45.6177 16.5403 47.0594 16.064 48.4338 16.4144C49.229 16.6171 49.8782 16.9966 50.5729 17.6649L50.8892 17.969V16.6188H54.8279V27.5553H50.8892V26.8674C50.8892 26.4889 50.8785 26.1792 50.8655 26.1792C50.8526 26.1792 50.6924 26.3298 50.5096 26.5142C49.5078 27.5243 48.2558 28.0149 47.113 27.8454L47.1131 27.8452ZM49.6213 23.8205C50.4418 23.4161 50.9118 22.2344 50.6132 21.3265C50.4491 20.8273 50.009 20.414 49.4399 20.2245C48.8902 20.0418 48.5024 20.0618 48.0066 20.299C47.3665 20.6052 46.9866 21.2374 46.9866 21.9965C46.9866 22.5491 47.1669 22.9918 47.5468 23.3726C48.1175 23.9446 48.9883 24.1326 49.6213 23.8206V23.8205ZM37.6521 26.8247C37.639 26.4033 37.6267 25.2095 37.6248 24.1721C37.623 23.1345 37.6107 21.9762 37.5976 21.5977C37.5707 20.8157 37.5373 20.701 37.2557 20.4171C36.9262 20.0851 36.3584 19.9647 35.914 20.1327C35.5244 20.28 35.228 20.6728 35.1382 21.1608C35.1117 21.3053 35.0988 22.38 35.0988 24.4471V27.5186H33.003C31.8502 27.5186 30.9038 27.5143 30.8998 27.5095C30.8959 27.5045 30.8837 26.0338 30.8728 24.2412L30.8529 20.982L30.7301 20.755C30.5887 20.4937 30.4121 20.3208 30.1405 20.1776C29.9706 20.0881 29.9116 20.077 29.6063 20.0769C29.3177 20.0769 29.2382 20.0901 29.1079 20.1597C28.7653 20.3428 28.5066 20.7351 28.3865 21.2536C28.3289 21.5027 28.3248 21.7748 28.3368 24.5399L28.3499 27.5546H24.1618L24.1377 24.2895C24.1247 22.4937 24.1137 20.0085 24.1137 18.767V16.5096H28.2672L28.2773 17.0251C28.2858 17.4667 28.2957 17.5425 28.3459 17.552C28.3804 17.5587 28.5361 17.4326 28.7253 17.2447C29.1082 16.8644 29.4419 16.6638 30.0196 16.4666C31.5907 15.9302 33.1456 16.3027 34.3091 17.4942L34.6216 17.8141L34.7197 17.6463C35.1802 16.8588 36.4728 16.2923 37.8088 16.2923C38.9157 16.2923 39.9042 16.67 40.6038 17.36C41.3297 18.0759 41.7645 19.176 41.8349 20.475C41.8458 20.6741 41.8639 22.3567 41.8754 24.214L41.8961 27.591H37.6757L37.6519 26.8246L37.6521 26.8247ZM15.9446 27.7187C15.0804 27.5769 14.4526 27.3343 13.7611 26.8752C12.1145 25.7822 11.0952 23.6904 11.1891 21.5972C11.304 19.0323 12.9466 17.101 15.5317 16.4909C16.6636 16.2237 17.9535 16.1841 18.9448 16.3861C20.6795 16.7397 22.1742 17.9302 22.9413 19.5692C23.6881 21.165 23.7121 22.9857 23.0062 24.5097C22.2125 26.2232 20.5768 27.3333 18.3323 27.6815C17.7993 27.7642 16.3585 27.7867 15.9448 27.7187H15.9446ZM17.8081 23.8065C18.439 23.6738 18.9597 23.2815 19.2342 22.732C19.376 22.448 19.3801 22.4299 19.3795 22.073C19.379 21.6463 19.3129 21.3279 19.1607 21.0183C18.6386 19.9552 17.3411 19.5373 16.244 20.0786C15.7063 20.3438 15.2441 20.9629 15.1431 21.5529C14.9843 22.4824 15.6832 23.5862 16.5977 23.8502C16.7962 23.9075 17.4384 23.8843 17.8083 23.8065H17.8081Z" fill="black"/>
<path d="M4.7091 22.3404V17.1257H0.915039V13.0605L6.65151 13.0872C9.80652 13.102 12.4002 13.1213 12.4151 13.1302C12.43 13.1392 12.4422 14.0336 12.4422 15.118V17.0893H8.75646V27.5552H4.70938V22.3404H4.7091Z" fill="black"/>
</svg>

<svg xmlns="http://www.w3.org/2000/svg" width="99" height="28" fill="none">
  <path fill="#000" d="m15.664 14.495-1.137-.015V.09h3.43c3.7 0 4.012.019 4.915.281 1.466.426 2.585 1.35 3.201 2.643.3.628.418 1.13.449 1.916.07 1.776-.682 3.32-2.013 4.134-.398.244-.417.263-.352.367.175.278 2.941 5.052 2.941 5.076 0 .014-1.055.026-2.346.026h-2.345l-1.362-2.298A201.886 201.886 0 0 0 19.62 9.85c-.048-.066-.17-.095-.476-.117l-.412-.028.025 2.414.026 2.414-.991-.012-2.128-.027Zm5.063-8.028c.96-.202 1.45-.663 1.505-1.412.037-.524-.087-.882-.42-1.206-.44-.43-1.054-.578-2.4-.581l-.71-.002.033.469c.018.258.033 1.01.033 1.672v1.204l.805-.035c.443-.02.962-.068 1.154-.109Z"/>
  <path fill="#000" d="M31.673 14.736c-1.266-.143-2.382-.707-3.284-1.66-1.025-1.083-1.576-2.416-1.634-3.951-.032-.823.03-1.368.226-1.99.739-2.347 2.833-3.744 5.774-3.854a7.842 7.842 0 0 1 1.252.035c2.525.344 4.381 2.107 4.934 4.685.117.545.116 1.795-.002 2.312-.487 2.143-1.99 3.624-4.252 4.19-.896.224-2.202.325-3.014.233Zm1.388-1.713c.496-.147.7-.418.695-.922a1.857 1.857 0 0 0-.086-.525c-.237-.63-.235-.622-.178-.748a.422.422 0 0 1 .18-.18c.164-.075.262-.01.483.318.314.466.88.996 1.248 1.169.295.138.378.155.687.137.307-.017.388-.045.635-.215.324-.224.411-.406.408-.852-.003-.447-.234-.817-.695-1.108-.281-.179-.88-.362-1.317-.404-.555-.053-.752-.144-.823-.381-.069-.231.004-.42.224-.584.112-.083.25-.111.665-.136.333-.02.58-.06.68-.114.725-.384.772-1.63.08-2.112-.193-.135-.264-.154-.562-.152-.684.004-1.147.453-1.366 1.325a.73.73 0 0 1-.152.258c-.14.152-.403.175-.632.056-.231-.12-.261-.383-.128-1.135.165-.936.075-1.328-.364-1.585-.28-.165-.776-.222-1.071-.125-.26.087-.6.436-.678.698-.157.528-.033.863.551 1.477.246.258.461.517.48.575.084.264-.235.568-.528.503-.168-.037-.327-.2-.586-.598-.416-.64-.997-.845-1.57-.552-.492.252-.62.82-.293 1.307.19.282.53.47 1.056.583.76.163.973.328.766.592-.107.137-.118.14-.472.1-.534-.057-.74-.036-1.037.108-.31.15-.444.317-.528.652-.169.671.304 1.266 1.003 1.263.368-.001.648-.154 1.115-.607.516-.501.608-.554.775-.444.182.12.205.297.08.624-.284.744-.022 1.518.589 1.736.255.091.354.091.666-.002Zm11.667 1.509c-1.919-.123-2.958-.658-3.53-1.817-.395-.803-.49-1.479-.538-3.88l-.032-1.625h-.268a4.47 4.47 0 0 1-.506-.033l-.237-.032v-3.52h1.074V.552h4.19v3.073h1.737v3.636h-1.737v1.626c0 1.523.007 1.637.1 1.79.174.287.31.323 1.226.323h.82v3.585l-.856-.008a32.12 32.12 0 0 1-1.444-.045Zm7.779-.053c-2.217-.214-3.231-1.11-3.567-3.15-.06-.362-.093-1.019-.116-2.283-.018-.977-.052-1.795-.075-1.818-.024-.024-.26-.051-.524-.06l-.482-.018V3.574h1.137l-.038-1.536L48.804.5h4.203v3.125h1.737V7.21h-1.742l.015 1.652c.014 1.497.024 1.664.108 1.789.2.294.297.322 1.198.34l.83.018v3.525l-1.111-.007a24.9 24.9 0 0 1-1.535-.048Zm8.483-2.2c-1.757-.223-3.39-1.106-4.191-2.268a6.364 6.364 0 0 1-1.145-3.672c-.001-1.93.838-3.484 2.466-4.57 1.02-.68 1.808-.902 3.344-.945.784-.022.992-.01 1.406.075a4.729 4.729 0 0 1 2.111.998c.527.442 1.115 1.311 1.411 2.086.356.93.557 2.421.43 3.188l-.031.192h-3.698c-2.034 0-3.698.02-3.698.044 0 .024.088.18.196.347.471.731 1.223 1.096 2.254 1.094.773-.002 1.503-.205 2.024-.565l.21-.145 1.171 1.103 1.24 1.168c.107.103.008.235-.447.6-.702.563-1.564.95-2.601 1.17-.573.121-1.863.173-2.451.1Zm2.165-7.128c-.085-.53-.396-.927-.922-1.174-.574-.27-1.324-.246-1.923.06-.406.208-.785.693-.885 1.135l-.031.139.422.017c.232.01 1.086.022 1.898.028l1.475.01-.034-.215Zm4.62 3.903V3.523h4.14v.768c0 .422.017.768.038.768.021 0 .153-.14.294-.312a4.538 4.538 0 0 1 1.894-1.329c2.153-.747 4.453.934 4.772 3.489.033.262.054 1.823.054 4.027v3.6h-4.19V7.998l-.136-.273c-.223-.448-.669-.71-1.219-.715-.618-.005-1.079.372-1.32 1.082-.105.312-.11.414-.125 3.407l-.016 3.086h-4.186V9.054Zm1.487 18.59c-1.247-.175-2.444-.722-3.24-1.48-.984-.937-1.568-2.396-1.568-3.92 0-1.59.72-2.993 2.08-4.057.236-.185.42-.345.41-.355-.01-.01-.403.007-.872.04-.469.031-.866.044-.883.027-.05-.05.273-.478.494-.653a1.793 1.793 0 0 1 1.563-.35c.406.103.39.002-.076-.51l-.416-.457.276-.237a2.53 2.53 0 0 1 .301-.236c.014 0 .19.265.394.59.203.324.389.6.412.615.022.014.124-.1.227-.255.44-.665 1.064-.964 1.663-.797.4.112.4.135 0 .636-.198.249-.36.456-.36.461 0 .006.41 0 .913-.012 1.763-.042 2.939.229 3.925.902.338.231.836.738 1.085 1.104.193.283.72 1.37.843 1.74.266.796.306 2.204.086 3.03-.155.584-.553 1.363-.947 1.853-.888 1.106-2.332 1.924-3.964 2.244-.506.1-1.864.144-2.347.076Zm13.436.15a7.084 7.084 0 0 1-3.039-1.114c-1.062-.694-1.862-1.987-2.206-3.568-.112-.511-.148-1.56-.072-2.078.264-1.81 1.365-3.263 3.16-4.17.34-.172.63-.27 1.093-.372.572-.125.727-.138 1.703-.138.959 0 1.12.012 1.507.117 1.816.491 3.066 1.926 3.534 4.055.098.446.118.69.12 1.434v.896l-3.716.025-3.717.026.156.275c.445.78 1.238 1.185 2.323 1.185.764 0 1.586-.238 2.05-.593l.168-.128 1.255 1.188 1.256 1.188-.194.2c-1.126 1.163-3.391 1.825-5.381 1.572Zm2.176-7.076c-.11-.696-.65-1.19-1.45-1.328-1.036-.178-2.064.43-2.287 1.35-.033.139-.032.14.291.157.179.01 1.035.023 1.903.029l1.578.01-.035-.218Zm7.916 7.13a9.5 9.5 0 0 1-1.859-.418c-.712-.252-1.795-.834-1.795-.965 0-.042 1.494-2.675 1.567-2.76.01-.012.334.141.72.34 1.06.545 1.546.69 2.287.685.597-.005.98-.107 1.163-.31.255-.285.138-.698-.231-.815-.09-.029-.522-.05-.957-.048-.554.003-.902-.02-1.156-.077-1.45-.326-2.58-1.263-3.042-2.52-.092-.25-.114-.42-.117-.92l-.004-.615.22-.461c.636-1.334 1.873-2.285 3.373-2.596.411-.085.63-.098 1.288-.08.853.026 1.362.117 2.148.387.809.277 1.909.796 1.904.897-.002.023-.321.582-.71 1.243-.544.922-.727 1.192-.787 1.166-.286-.128-1.58-.54-1.917-.611a5.783 5.783 0 0 0-.922-.093c-.544-.006-.7.044-.903.295-.14.171-.119.5.04.65.127.12.166.125.933.139 1.902.033 3.09.446 3.93 1.366.502.549.764 1.176.815 1.951.072 1.102-.32 2.06-1.175 2.875-.586.558-.821.702-1.589.968-.835.29-2.267.435-3.224.327Zm-31.493-.355c-.442-.022-1.206-.126-1.536-.21-1.538-.39-2.278-1.273-2.567-3.06-.039-.245-.067-.882-.097-2.196l-.041-1.851-.237-.022a6.764 6.764 0 0 0-.518-.023h-.28v-3.586h1.117l-.017-1.294a65.088 65.088 0 0 0-.032-1.54l-.016-.244h4.224v3.115h1.734v3.62h-1.734v1.549c0 .968.015 1.6.038 1.685.047.17.23.383.385.448.086.036.329.049.93.049h.815v3.585l-.967-.007a52.676 52.676 0 0 1-1.201-.018Zm-14.184.352c-.86-.128-1.727-.605-2.558-1.41-.513-.496-.805-.889-1.092-1.47-.43-.866-.593-1.54-.623-2.572-.028-.991.085-1.755.39-2.644.318-.92.631-1.451 1.187-2.008 1.2-1.2 2.642-1.677 4.017-1.327.795.203 1.444.583 2.139 1.25l.316.305v-1.35h3.939v10.936h-3.939v-.688c0-.378-.01-.688-.024-.688-.012 0-.173.15-.355.335-1.002 1.01-2.254 1.5-3.397 1.331Zm2.508-4.024c.82-.405 1.29-1.587.992-2.495-.164-.499-.604-.912-1.173-1.102-.55-.182-.938-.162-1.433.075-.64.306-1.02.938-1.02 1.698 0 .552.18.995.56 1.376.57.572 1.441.76 2.074.448Zm-11.969 3.004a129.69 129.69 0 0 1-.027-2.653 116.526 116.526 0 0 0-.027-2.574c-.027-.782-.06-.897-.342-1.18-.33-.333-.898-.453-1.342-.285-.39.147-.686.54-.776 1.028-.026.144-.04 1.219-.04 3.286v3.072h-2.095c-1.153 0-2.1-.005-2.103-.01a380.95 380.95 0 0 1-.027-3.268l-.02-3.259-.123-.227a1.326 1.326 0 0 0-.59-.577c-.17-.09-.228-.101-.534-.101-.288 0-.368.013-.498.083-.343.183-.601.575-.721 1.094-.058.249-.062.52-.05 3.286l.013 3.015h-4.188l-.024-3.265a954.452 954.452 0 0 1-.024-5.523V16.51h4.153l.01.515c.009.442.019.518.069.527.034.007.19-.12.38-.307.382-.38.716-.581 1.294-.778 1.57-.537 3.126-.164 4.29 1.027l.312.32.098-.168c.46-.787 1.753-1.354 3.089-1.354 1.107 0 2.095.378 2.795 1.068.726.716 1.16 1.816 1.23 3.115.012.2.03 1.882.041 3.739l.021 3.377h-4.22l-.024-.766Zm-21.707.894c-.865-.142-1.492-.385-2.184-.844-1.646-1.093-2.666-3.185-2.572-5.278.115-2.565 1.758-4.496 4.343-5.106 1.132-.267 2.421-.307 3.413-.105 1.735.354 3.23 1.544 3.996 3.183.747 1.596.771 3.417.065 4.94-.794 1.714-2.43 2.824-4.674 3.172-.533.083-1.974.106-2.387.038Zm1.863-3.913a2.044 2.044 0 0 0 1.426-1.074c.142-.284.146-.302.145-.659 0-.427-.066-.745-.218-1.055-.522-1.063-1.82-1.48-2.917-.94-.538.266-1 .885-1.1 1.475-.16.93.54 2.033 1.454 2.297.198.057.84.034 1.21-.044Z"/>
  <path fill="#000" d="M4.71 22.34v-5.214H.914V13.06l5.737.027c3.155.015 5.748.034 5.763.043.015.01.027.904.027 1.988v1.971H8.756v10.466H4.71V22.34Z"/>
</svg>
